X: 14424
T: Galway Rambler, The
R: reel
M: 4/4
K: Gmajor
G2dg egdB|GBdB AGED|G2GA BGBd|gedB AGED|
G2dg egdB|GBdB AGEF|G2GA BGBd|gedB A2 Bd||
g2 gb a2 ab|gabg aged|g2 gb aged|gedB A2Bd|
gabg gabg|gabg a2ga|bgag edBd|gedB AGEF||

